images/resume.svg

<?xml version="1.0" encoding="UTF-8" standalone="no"?>
<svg
   xmlns:dc="http://purl.org/dc/elements/1.1/"
   xmlns:cc="http://creativecommons.org/ns#"
   xmlns:rdf="http://www.w3.org/1999/02/22-rdf-syntax-ns#"
   xmlns:svg="http://www.w3.org/2000/svg"
   xmlns="http://www.w3.org/2000/svg"
   xmlns:sodipodi="http://sodipodi.sourceforge.net/DTD/sodipodi-0.dtd"
   xmlns:inkscape="http://www.inkscape.org/namespaces/inkscape"
   width="76"
   height="76"
   viewBox="0 0 76 76"
   fill="none"
   id="svg2"
   version="1.1"
   inkscape:version="0.91 r13725"
   sodipodi:docname="resume.svg">
  <metadata
     id="metadata10">
    <rdf:RDF>
      <cc:Work
         rdf:about="">
        <dc:format>image/svg+xml</dc:format>
        <dc:type
           rdf:resource="http://purl.org/dc/dcmitype/StillImage" />
      </cc:Work>
    </rdf:RDF>
  </metadata>
  <defs
     id="defs8" />
  <sodipodi:namedview
     pagecolor="#ffffff"
     bordercolor="#666666"
     borderopacity="1"
     objecttolerance="10"
     gridtolerance="10"
     guidetolerance="10"
     inkscape:pageopacity="0"
     inkscape:pageshadow="2"
     inkscape:window-width="1600"
     inkscape:window-height="877"
     id="namedview6"
     showgrid="false"
     inkscape:zoom="6.2105263"
     inkscape:cx="72.708835"
     inkscape:cy="33.813598"
     inkscape:window-x="-8"
     inkscape:window-y="-8"
     inkscape:window-maximized="1"
     inkscape:current-layer="svg2"
     inkscape:snap-smooth-nodes="true"
     inkscape:snap-midpoints="false"
     inkscape:snap-intersection-paths="false"
     inkscape:snap-bbox="true"
     inkscape:bbox-paths="true"
     inkscape:bbox-nodes="true" />
  <path
     style="clip-rule:evenodd;fill:#f4f4f6;fill-rule:evenodd;fill-opacity:1"
     d="m 20.267578,13.197266 c -1.1046,0 -2,0.896276 -2,2.001953 l 0,45.601562 c 0,1.105676 0.8954,2.001953 2,2.001953 l 35.466797,0 c 1.1046,0 2,-0.896277 2,-2.001953 l 0,-36.21289 c 0,-0.511498 -0.195875,-1.003338 -0.546875,-1.375 l -8.867188,-9.388672 c -0.3778,-0.39999 -0.903224,-0.626953 -1.453124,-0.626953 z m 2,4.003906 23.738281,0 7.728516,8.183594 0,33.414062 -31.466797,0 z M 38,20.267578 c -1.3992,0 -2.533203,1.417113 -2.533203,3.166016 0,1.748903 1.134003,3.166015 2.533203,3.166015 1.399201,0 2.533203,-1.417112 2.533203,-3.166015 0,-1.748903 -1.134002,-3.166016 -2.533203,-3.166016 z m -2.257812,6.332031 c -1.570901,0.08218 -2.808594,0.994538 -2.808594,2.107422 l 0,4.226563 10.132812,0 0,-4.226563 c 0,-1.112884 -1.237793,-2.025242 -2.808594,-2.107422 -0.556399,0.428818 -1.361711,0.699219 -2.257812,0.699219 -0.8961,0 -1.701413,-0.270401 -2.257812,-0.699219 z M 26.833984,37.53125 c -0.8284,0 -1.5,0.670793 -1.5,1.5 0,0.829308 0.6716,1.501953 1.5,1.501953 l 22.332032,0 c 0.8284,0 1.5,-0.672645 1.5,-1.501953 0,-0.829207 -0.6716,-1.5 -1.5,-1.5 z m 0,7.599609 c -0.8284,0 -1.5,0.670693 -1.5,1.5 0,0.829207 0.6716,1.501953 1.5,1.501953 l 22.332032,0 c 0.8284,0 1.5,-0.672746 1.5,-1.501953 0,-0.829307 -0.6716,-1.5 -1.5,-1.5 z m 0,7.59961 c -0.8284,0 -1.5,0.672745 -1.5,1.501953 0,0.829207 0.6716,1.5 1.5,1.5 l 22.332032,0 c 0.8284,0 1.5,-0.670793 1.5,-1.5 0,-0.829208 -0.6716,-1.501953 -1.5,-1.501953 z"
     id="path4"
     inkscape:connector-curvature="0"
     sodipodi:nodetypes="sssssssccssccccccssssscsccscscsssssssssssssssssssss" />
  <g
     inkscape:groupmode="layer"
     id="layer1"
     inkscape:label="Layer 1" />
</svg>

<?xml version="1.0" encoding="UTF-8" standalone="no"?>
<!DOCTYPE svg PUBLIC "-//W3C//DTD SVG 1.1//EN" "http://www.w3.org/Graphics/SVG/1.1/DTD/svg11.dtd">
<svg width="100%" height="100%" viewBox="0 0 76 76" version="1.1" xmlns="http://www.w3.org/2000/svg" xmlns:xlink="http://www.w3.org/1999/xlink" xml:space="preserve" xmlns:serif="http://www.serif.com/" style="fill-rule:evenodd;clip-rule:evenodd;stroke-linejoin:round;stroke-miterlimit:2;">
    <g id="path4" transform="matrix(1.53209,0,0,1.53209,-20.2199,-20.2194)">
        <path d="M20.268,13.197C19.163,13.197 18.268,14.094 18.268,15.199L18.268,60.801C18.268,61.906 19.163,62.803 20.268,62.803L55.734,62.803C56.839,62.803 57.734,61.906 57.734,60.801L57.734,24.588C57.734,24.076 57.539,23.585 57.188,23.213L48.32,13.824C47.943,13.424 47.417,13.197 46.867,13.197L20.268,13.197ZM22.268,17.201L46.006,17.201L53.734,25.385L53.734,58.799L22.268,58.799L22.268,17.201ZM38,20.268C36.601,20.268 35.467,21.685 35.467,23.434C35.467,25.182 36.601,26.6 38,26.6C39.399,26.6 40.533,25.182 40.533,23.434C40.533,21.685 39.399,20.268 38,20.268ZM35.742,26.6C34.171,26.682 32.934,27.594 32.934,28.707L32.934,32.934L43.066,32.934L43.066,28.707C43.066,27.594 41.829,26.682 40.258,26.6C39.701,27.028 38.896,27.299 38,27.299C37.104,27.299 36.299,27.028 35.742,26.6ZM26.834,37.531C26.006,37.531 25.334,38.202 25.334,39.031C25.334,39.861 26.006,40.533 26.834,40.533L49.166,40.533C49.994,40.533 50.666,39.861 50.666,39.031C50.666,38.202 49.994,37.531 49.166,37.531L26.834,37.531ZM26.834,45.131C26.006,45.131 25.334,45.802 25.334,46.631C25.334,47.46 26.006,48.133 26.834,48.133L49.166,48.133C49.994,48.133 50.666,47.46 50.666,46.631C50.666,45.802 49.994,45.131 49.166,45.131L26.834,45.131ZM26.834,52.73C26.006,52.73 25.334,53.403 25.334,54.232C25.334,55.062 26.006,55.732 26.834,55.732L49.166,55.732C49.994,55.732 50.666,55.062 50.666,54.232C50.666,53.403 49.994,52.73 49.166,52.73L26.834,52.73Z"/>
    </g>
</svg>
